icons/svg/ray-end-arrow.svg

﻿<?xml version="1.0" encoding="utf-8"?>
<!DOCTYPE svg PUBLIC "-//W3C//DTD SVG 1.1//EN" "http://www.w3.org/Graphics/SVG/1.1/DTD/svg11.dtd">
<svg xmlns="http://www.w3.org/2000/svg" xmlns:xlink="http://www.w3.org/1999/xlink" version="1.1" baseProfile="full" width="24" height="24" viewBox="0 0 24.00 24.00" enable-background="new 0 0 24.00 24.00" xml:space="preserve">
	<path fill="#000000" fill-opacity="1" stroke-width="0.2" stroke-linejoin="round" d="M 1,12L 5,16L 5,13L 17.1707,13C 17.5825,14.1652 18.6938,15 20,15C 21.6568,15 23,13.6568 23,12C 23,10.3431 21.6568,9 20,9C 18.6938,9 17.5825,9.8348 17.1707,11L 5,11L 5,8L 1,12 Z "/>
</svg>

<svg xmlns="http://www.w3.org/2000/svg" version="1.1" baseProfile="full" width="24" height="24" viewBox="0 0 24.00 24.00" xml:space="preserve"><path fill="#000" fill-opacity="1" stroke-width=".2" stroke-linejoin="round" d="M1 12l4 4v-3h12.17c.412 1.165 1.524 2 2.83 2 1.657 0 3-1.343 3-3s-1.343-3-3-3c-1.306 0-2.418.835-2.83 2H5V8l-4 4z"/></svg>
